images/buffer_schematic.svg

<?xml version="1.0" encoding="UTF-8" standalone="no"?>
<svg
   xmlns:dc="http://purl.org/dc/elements/1.1/"
   xmlns:cc="http://creativecommons.org/ns#"
   xmlns:rdf="http://www.w3.org/1999/02/22-rdf-syntax-ns#"
   xmlns:svg="http://www.w3.org/2000/svg"
   xmlns="http://www.w3.org/2000/svg"
   xmlns:sodipodi="http://sodipodi.sourceforge.net/DTD/sodipodi-0.dtd"
   xmlns:inkscape="http://www.inkscape.org/namespaces/inkscape"
   color-interpolation="auto"
   color-rendering="auto"
   fill="black"
   fill-opacity="1"
   font-family="'Dialog'"
   font-size="12px"
   font-style="normal"
   font-weight="normal"
   height="100"
   image-rendering="auto"
   shape-rendering="auto"
   stroke="black"
   stroke-dasharray="none"
   stroke-dashoffset="0"
   stroke-linecap="square"
   stroke-linejoin="miter"
   stroke-miterlimit="10"
   stroke-opacity="1"
   stroke-width="1"
   text-rendering="auto"
   width="1750"
   id="svg2"
   version="1.1"
   inkscape:version="0.91 r13725"
   sodipodi:docname="buffer_schematic.svg">
  <metadata
     id="metadata65">
    <rdf:RDF>
      <cc:Work
         rdf:about="">
        <dc:format>image/svg+xml</dc:format>
        <dc:type
           rdf:resource="http://purl.org/dc/dcmitype/StillImage" />
      </cc:Work>
    </rdf:RDF>
  </metadata>
  <sodipodi:namedview
     pagecolor="#ffffff"
     bordercolor="#666666"
     borderopacity="1"
     objecttolerance="10"
     gridtolerance="10"
     guidetolerance="10"
     inkscape:pageopacity="0"
     inkscape:pageshadow="2"
     inkscape:window-width="1920"
     inkscape:window-height="1058"
     id="namedview63"
     showgrid="false"
     inkscape:zoom="0.16914286"
     inkscape:cx="875"
     inkscape:cy="44.087838"
     inkscape:window-x="-8"
     inkscape:window-y="-8"
     inkscape:window-maximized="1"
     inkscape:current-layer="svg2" />
  <!--Generated by the Batik Graphics2D SVG Generator-->
  <defs
     id="genericDefs" />
  <g
     id="g5"
     transform="translate(740.56954,-4.1312255)">
    <g
       transform="matrix(50,0,0,50,233.49,70.725)"
       id="g7"
       style="fill:#ffffff;stroke:#ffffff;stroke-width:0.06">
      <path
         d="M -0.13,-0.13 0,-0.13 0.13,0 0,0.13 l -0.13,0 z"
         id="path9"
         inkscape:connector-curvature="0"
         style="stroke:none" />
      <path
         d="M -0.13,-0.13 0,-0.13 0.13,0 0,0.13 l -0.13,0 z"
         id="path11"
         inkscape:connector-curvature="0"
         style="fill:none;stroke:#000000" />
    </g>
    <g
       font-size="0.5px"
       font-style="italic"
       transform="matrix(50,0,0,50,233.4922,70.7227)"
       id="g13"
       style="font-style:italic;font-size:0.5px;font-family:sans-serif;fill:#0000ff;stroke:#0000ff;stroke-width:0.06">
      <path
         d="m 0.33,0.14 0.0777,-0.3884 0.0481,0 -0.0341,0.1701 q 0.0407,-0.0556 0.0998,-0.0556 0.0479,0 0.0683,0.0349 0.0205,0.0349 0.0084,0.0954 -0.0132,0.066 -0.0524,0.1064 -0.0392,0.0404 -0.09,0.0404 -0.0471,0 -0.0711,-0.0362 L 0.3722,0.14 Z M 0.3913,0.0738 q 0.0305,0.0332 0.0642,0.0332 0.0693,0 0.0905,-0.1057 0.0186,-0.0932 -0.0429,-0.0932 -0.0403,0 -0.0874,0.0437 z"
         id="path15"
         inkscape:connector-curvature="0"
         style="stroke:none" />
    </g>
    <g
       font-size="0.5px"
       font-style="italic"
       transform="matrix(50,0,0,50,33.4922,70.7227)"
       id="g17"
       style="font-style:italic;font-size:0.5px;font-family:sans-serif;fill:#ffffff;stroke:#ffffff;stroke-width:0.06">
      <path
         d="M -0.13,-0.13 0,-0.13 0.13,0 0,0.13 l -0.13,0 z"
         id="path19"
         inkscape:connector-curvature="0"
         style="stroke:none" />
      <path
         d="M -0.13,-0.13 0,-0.13 0.13,0 0,0.13 l -0.13,0 z"
         id="path21"
         inkscape:connector-curvature="0"
         style="fill:none;stroke:#000000" />
    </g>
    <g
       font-size="0.5px"
       font-style="italic"
       transform="matrix(50,0,0,50,33.4922,70.7227)"
       id="g23"
       style="font-style:italic;font-size:0.5px;font-family:sans-serif;fill:#ff0000;stroke:#ff0000;stroke-width:0.06">
      <path
         d="m -0.4105,0.0633 q -0.0511,0.0398 -0.0912,0.0398 -0.0329,0 -0.0505,-0.0206 -0.0176,-0.0207 -0.0113,-0.0522 0.0086,-0.0434 0.0498,-0.0667 0.0412,-0.0234 0.1093,-0.0234 l 0.0115,0 0.0064,-0.0319 q 0.0092,-0.0462 -0.0382,-0.0462 -0.0381,0 -0.0869,0.0235 l 0.0079,-0.0398 q 0.0526,-0.0198 0.095,-0.0198 0.0445,0 0.0616,0.02 0.0171,0.02 0.0087,0.0623 l -0.0241,0.1201 q -0.0082,0.0412 0.0172,0.0412 0.0031,0 0.0094,-9e-4 l -0.0019,0.0266 q -0.0179,0.0078 -0.0377,0.0078 -0.0337,0 -0.035,-0.0398 z m -0.0018,-0.0261 0.0137,-0.0686 -0.016,-5e-4 q -0.0396,0 -0.067,0.015 -0.0274,0.015 -0.0323,0.0394 -0.0035,0.0174 0.0064,0.0293 0.0098,0.012 0.0274,0.012 0.03,0 0.0678,-0.0266 z"
         id="path25"
         inkscape:connector-curvature="0"
         style="stroke:none" />
    </g>
    <g
       font-size="0.5px"
       font-style="italic"
       transform="matrix(50,0,0,50,133.4922,70.7227)"
       id="g27"
       style="font-style:italic;font-size:0.5px;font-family:sans-serif;fill:#ffffff;stroke:#ffffff;stroke-width:0.06">
      <path
         d="m -0.5,-0.5 0,1 1,-0.5 z"
         id="path29"
         inkscape:connector-curvature="0"
         style="stroke:none" />
      <path
         d="m -0.5,-0.5 0,1 1,-0.5 z"
         id="path31"
         inkscape:connector-curvature="0"
         style="fill:none;stroke:#000000" />
      <line
         x1="0.5"
         x2="1"
         y1="0"
         y2="0"
         id="line33"
         style="fill:none;stroke:#000000;stroke-width:0.04" />
      <line
         x1="-0.5"
         x2="-1"
         y1="0"
         y2="0"
         id="line35"
         style="fill:none;stroke:#000000;stroke-width:0.04" />
    </g>
    <g
       font-size="0.5px"
       transform="matrix(50,0,0,50,133.4922,70.7227)"
       id="g37"
       style="font-size:0.5px;font-family:sans-serif;fill:#0000ff;stroke:#0000ff;stroke-width:0.04">
      <path
         d="m -0.7089,-0.8164 0,-0.3884 0.0481,0 0,0.1702 q 0.0296,-0.0557 0.0887,-0.0557 0.0478,0 0.0753,0.0349 0.0274,0.0349 0.0274,0.0955 0,0.0659 -0.0311,0.1063 -0.0311,0.0404 -0.0819,0.0404 -0.0471,0 -0.0784,-0.0361 l -0.0058,0.0329 z m 0.0481,-0.0661 q 0.0371,0.0332 0.0708,0.0332 0.0694,0 0.0694,-0.1058 0,-0.0932 -0.0616,-0.0932 -0.0402,0 -0.0786,0.0437 z m 0.4324,0.0632 0,-0.0498 q -0.0383,0.0559 -0.093,0.0559 -0.0347,0 -0.0552,-0.0219 -0.0205,-0.0218 -0.0205,-0.0589 l 0,-0.1904 0.0481,0 0,0.1748 q 0,0.0297 0.0087,0.0423 0.0086,0.0126 0.0289,0.0126 0.0439,0 0.083,-0.0579 l 0,-0.1718 0.0481,0 0,0.2651 z m 0.2019,-0.229 0,0.229 -0.0483,0 0,-0.229 -0.0376,0 0,-0.0361 0.0376,0 0,-0.0318 q 0,-0.0947 0.0864,-0.0947 0.0242,0 0.0549,0.008 l 0,0.0381 q -0.0324,-0.01 -0.052,-0.01 -0.0237,0 -0.0323,0.0114 -0.0087,0.0113 -0.0087,0.0421 l 0,0.0369 0.0662,0 0,0.0361 z m 0.1838,0 0,0.229 -0.0483,0 0,-0.229 -0.0376,0 0,-0.0361 0.0376,0 0,-0.0318 q 0,-0.0947 0.0864,-0.0947 0.0242,0 0.055,0.008 l 0,0.0381 q -0.0325,-0.01 -0.052,-0.01 -0.0237,0 -0.0324,0.0114 -0.0087,0.0113 -0.0087,0.0421 l 0,0.0369 0.0662,0 0,0.0361 z m 0.3208,0.2204 q -0.0483,0.0147 -0.0827,0.0147 -0.0586,0 -0.0956,-0.0389 -0.037,-0.039 -0.037,-0.101 0,-0.0603 0.0326,-0.0989 0.0326,-0.0386 0.0834,-0.0386 0.0481,0 0.0743,0.0342 0.0263,0.0342 0.0263,0.0972 l -3e-4,0.0149 -0.1672,0 q 0.0105,0.0945 0.0925,0.0945 0.03,0 0.0737,-0.0161 z m -0.164,-0.1525 0.1169,0 q 0,-0.074 -0.0551,-0.074 -0.0555,0 -0.0618,0.074 z m 0.2483,0.1611 0,-0.2651 0.0481,0 0,0.0498 q 0.0285,-0.0557 0.083,-0.0557 0.0073,0 0.0154,0.0012 l 0,0.0449 q -0.0125,-0.0041 -0.022,-0.0041 -0.0457,0 -0.0764,0.0542 l 0,0.1748 z"
         id="path39"
         inkscape:connector-curvature="0"
         style="stroke:none" />
      <path
         d="m -1.3183,-0.7537 0.014,-0.0417 q 0.0378,0.0198 0.0783,0.0198 0.0813,0 0.0986,-0.0862 l 0.0083,-0.0418 q -0.0377,0.0557 -0.0985,0.0557 -0.0476,0 -0.0688,-0.0347 -0.0211,-0.0346 -0.0094,-0.0935 0.0122,-0.0605 0.0518,-0.0986 0.0396,-0.0381 0.0903,-0.0381 0.0445,0 0.0692,0.0361 l 0.0061,-0.0302 0.0483,0 -0.0386,0.1928 q -0.0124,0.0623 -0.0249,0.0922 -0.0124,0.0299 -0.034,0.049 -0.0382,0.0334 -0.1046,0.0334 -0.0464,0 -0.0861,-0.0142 z m 0.2052,-0.1799 0.022,-0.1101 q -0.0251,-0.033 -0.0625,-0.033 -0.0332,0 -0.0573,0.0267 -0.0241,0.0266 -0.0334,0.0729 -0.0174,0.0872 0.0439,0.0872 0.0417,0 0.0873,-0.0437 z m 0.2301,0.1008 q -0.0559,0 -0.0799,-0.0526 -0.0241,-0.0526 -0.0071,-0.1373 0.0171,-0.0855 0.0623,-0.1375 0.0452,-0.052 0.102,-0.052 0.0569,0 0.0813,0.052 0.0244,0.052 0.0075,0.1368 -0.0174,0.0869 -0.0626,0.1388 -0.0452,0.0518 -0.1035,0.0518 z m 0.0077,-0.0361 q 0.0764,0 0.1075,-0.1553 0.0303,-0.1518 -0.0451,-0.1518 -0.0752,0 -0.1058,0.1533 -0.0308,0.1538 0.0434,0.1538 z"
         id="path41"
         inkscape:connector-curvature="0"
         style="fill:#ffffff;stroke:none" />
    </g>
    <g
       font-size="0.5px"
       font-style="italic"
       transform="matrix(50,0,0,50,133.4922,120.7227)"
       id="g43"
       style="font-style:italic;font-size:0.5px;font-family:sans-serif;stroke-width:0.04">
      <path
         d="m 1.11,-1 0.76,0"
         id="path45"
         inkscape:connector-curvature="0"
         style="fill:none" />
      <path
         d="m 1.87,-1.075 0,0.15 0,-0.075 z"
         id="path47"
         inkscape:connector-curvature="0"
         style="stroke:none" />
    </g>
    <g
       font-size="0.5px"
       font-style="italic"
       transform="matrix(50,0,0,50,133.4922,120.7227)"
       id="g49"
       style="font-style:italic;font-size:0.5px;font-family:sans-serif;stroke-width:0.04">
      <line
         x1="1"
         x2="1.11"
         y1="-1"
         y2="-1"
         id="line51"
         style="fill:none" />
    </g>
    <g
       font-size="0.5px"
       font-style="italic"
       transform="matrix(50,0,0,50,133.4922,120.7227)"
       id="g53"
       style="font-style:italic;font-size:0.5px;font-family:sans-serif;stroke-width:0.04">
      <path
         d="m -1.87,-1 0.76,0"
         id="path55"
         inkscape:connector-curvature="0"
         style="fill:none" />
      <path
         d="m -1.11,-1.075 0,0.15 0,-0.075 z"
         id="path57"
         inkscape:connector-curvature="0"
         style="stroke:none" />
    </g>
    <g
       font-size="0.5px"
       font-style="italic"
       transform="matrix(50,0,0,50,133.4922,120.7227)"
       id="g59"
       style="font-style:italic;font-size:0.5px;font-family:sans-serif;stroke-width:0.04">
      <line
         x1="-1.11"
         x2="-1"
         y1="-1"
         y2="-1"
         id="line61"
         style="fill:none" />
    </g>
  </g>
</svg>

<?xml version="1.0" encoding="UTF-8"?>
<!DOCTYPE svg PUBLIC '-//W3C//DTD SVG 1.0//EN'
          'http://www.w3.org/TR/2001/REC-SVG-20010904/DTD/svg10.dtd'>
<svg color-interpolation="auto" color-rendering="auto" fill="black" fill-opacity="1" font-family="'Dialog'" font-size="12px" font-style="normal" font-weight="normal" height="100" image-rendering="auto" shape-rendering="auto" stroke="black" stroke-dasharray="none" stroke-dashoffset="0" stroke-linecap="square" stroke-linejoin="miter" stroke-miterlimit="10" stroke-opacity="1" stroke-width="1" text-rendering="auto" width="1750" xmlns="http://www.w3.org/2000/svg" xmlns:xlink="http://www.w3.org/1999/xlink"
><!--Generated by the Batik Graphics2D SVG Generator--><defs id="genericDefs"
  /><g
  ><g fill="white" stroke="white" stroke-width="0.06" transform="scale(50,50) translate(2.6698,2.4145) matrix(1,0,0,1,2,-1)"
    ><path d="M-0.13 -0.13 L0 -0.13 L0.13 0 L0 0.13 L-0.13 0.13 Z" stroke="none"
      /><path d="M-0.13 -0.13 L0 -0.13 L0.13 0 L0 0.13 L-0.13 0.13 Z" fill="none" stroke="black"
    /></g
    ><g fill="blue" font-family="sans-serif" font-size="0.5px" font-style="italic" stroke="blue" stroke-width="0.06" transform="matrix(50,0,0,50,233.4922,70.7227)"
    ><path d="M0.33 0.14 L0.4077 -0.2484 L0.4558 -0.2484 L0.4217 -0.0783 Q0.4624 -0.1339 0.5215 -0.1339 Q0.5694 -0.1339 0.5898 -0.099 Q0.6103 -0.0641 0.5982 -0.0036 Q0.585 0.0624 0.5458 0.1028 Q0.5066 0.1432 0.4558 0.1432 Q0.4087 0.1432 0.3847 0.107 L0.3722 0.14 ZM0.3913 0.0738 Q0.4218 0.107 0.4555 0.107 Q0.5248 0.107 0.546 0.0013 Q0.5646 -0.0919 0.5031 -0.0919 Q0.4628 -0.0919 0.4157 -0.0482 Z" stroke="none"
    /></g
    ><g fill="white" font-family="sans-serif" font-size="0.5px" font-style="italic" stroke="white" stroke-width="0.06" transform="matrix(50,0,0,50,33.4922,70.7227)"
    ><path d="M-0.13 -0.13 L0 -0.13 L0.13 0 L0 0.13 L-0.13 0.13 Z" stroke="none"
      /><path d="M-0.13 -0.13 L0 -0.13 L0.13 0 L0 0.13 L-0.13 0.13 Z" fill="none" stroke="black"
    /></g
    ><g fill="red" font-family="sans-serif" font-size="0.5px" font-style="italic" stroke="red" stroke-width="0.06" transform="matrix(50,0,0,50,33.4922,70.7227)"
    ><path d="M-0.4105 0.0633 Q-0.4616 0.1031 -0.5017 0.1031 Q-0.5346 0.1031 -0.5522 0.0825 Q-0.5698 0.0618 -0.5635 0.0303 Q-0.5549 -0.0131 -0.5137 -0.0364 Q-0.4725 -0.0598 -0.4044 -0.0598 L-0.3929 -0.0598 L-0.3865 -0.0917 Q-0.3773 -0.1379 -0.4247 -0.1379 Q-0.4628 -0.1379 -0.5116 -0.1144 L-0.5037 -0.1542 Q-0.4511 -0.174 -0.4087 -0.174 Q-0.3642 -0.174 -0.3471 -0.154 Q-0.33 -0.134 -0.3384 -0.0917 L-0.3625 0.0284 Q-0.3707 0.0696 -0.3453 0.0696 Q-0.3422 0.0696 -0.3359 0.0687 L-0.3378 0.0953 Q-0.3557 0.1031 -0.3755 0.1031 Q-0.4092 0.1031 -0.4105 0.0633 ZM-0.4123 0.0372 L-0.3986 -0.0314 L-0.4146 -0.0319 Q-0.4542 -0.0319 -0.4816 -0.0169 Q-0.509 -0.0019 -0.5139 0.0225 Q-0.5174 0.0399 -0.5075 0.0518 Q-0.4977 0.0638 -0.4801 0.0638 Q-0.4501 0.0638 -0.4123 0.0372 Z" stroke="none"
    /></g
    ><g fill="white" font-family="sans-serif" font-size="0.5px" font-style="italic" stroke="white" stroke-width="0.06" transform="matrix(50,0,0,50,133.4922,70.7227)"
    ><path d="M-0.5 -0.5 L-0.5 0.5 L0.5 0 Z" stroke="none"
      /><path d="M-0.5 -0.5 L-0.5 0.5 L0.5 0 Z" fill="none" stroke="black"
      /><line fill="none" stroke="black" stroke-width="0.04" x1="0.5" x2="1" y1="0" y2="0"
      /><line fill="none" stroke="black" stroke-width="0.04" x1="-0.5" x2="-1" y1="0" y2="0"
    /></g
    ><g fill="blue" font-family="sans-serif" font-size="0.5px" stroke="blue" stroke-width="0.04" transform="matrix(50,0,0,50,133.4922,70.7227)"
    ><path d="M-0.7089 -0.8164 L-0.7089 -1.2048 L-0.6608 -1.2048 L-0.6608 -1.0346 Q-0.6312 -1.0903 -0.5721 -1.0903 Q-0.5243 -1.0903 -0.4968 -1.0554 Q-0.4694 -1.0205 -0.4694 -0.9599 Q-0.4694 -0.894 -0.5005 -0.8536 Q-0.5316 -0.8132 -0.5824 -0.8132 Q-0.6295 -0.8132 -0.6608 -0.8493 L-0.6666 -0.8164 ZM-0.6608 -0.8825 Q-0.6237 -0.8493 -0.59 -0.8493 Q-0.5206 -0.8493 -0.5206 -0.9551 Q-0.5206 -1.0483 -0.5822 -1.0483 Q-0.6224 -1.0483 -0.6608 -1.0046 ZM-0.2284 -0.8193 L-0.2284 -0.8691 Q-0.2667 -0.8132 -0.3214 -0.8132 Q-0.3561 -0.8132 -0.3766 -0.8351 Q-0.3971 -0.8569 -0.3971 -0.894 L-0.3971 -1.0844 L-0.349 -1.0844 L-0.349 -0.9096 Q-0.349 -0.8799 -0.3403 -0.8673 Q-0.3317 -0.8547 -0.3114 -0.8547 Q-0.2675 -0.8547 -0.2284 -0.9126 L-0.2284 -1.0844 L-0.1803 -1.0844 L-0.1803 -0.8193 ZM-0.0265 -1.0483 L-0.0265 -0.8193 L-0.0748 -0.8193 L-0.0748 -1.0483 L-0.1124 -1.0483 L-0.1124 -1.0844 L-0.0748 -1.0844 L-0.0748 -1.1162 Q-0.0748 -1.2109 0.0116 -1.2109 Q0.0358 -1.2109 0.0665 -1.2029 L0.0665 -1.1648 Q0.0341 -1.1748 0.0145 -1.1748 Q-0.0092 -1.1748 -0.0178 -1.1634 Q-0.0265 -1.1521 -0.0265 -1.1213 L-0.0265 -1.0844 L0.0397 -1.0844 L0.0397 -1.0483 ZM0.1573 -1.0483 L0.1573 -0.8193 L0.109 -0.8193 L0.109 -1.0483 L0.0714 -1.0483 L0.0714 -1.0844 L0.109 -1.0844 L0.109 -1.1162 Q0.109 -1.2109 0.1954 -1.2109 Q0.2196 -1.2109 0.2504 -1.2029 L0.2504 -1.1648 Q0.2179 -1.1748 0.1984 -1.1748 Q0.1747 -1.1748 0.166 -1.1634 Q0.1573 -1.1521 0.1573 -1.1213 L0.1573 -1.0844 L0.2235 -1.0844 L0.2235 -1.0483 ZM0.4781 -0.8279 Q0.4298 -0.8132 0.3954 -0.8132 Q0.3368 -0.8132 0.2998 -0.8521 Q0.2628 -0.8911 0.2628 -0.9531 Q0.2628 -1.0134 0.2954 -1.052 Q0.328 -1.0906 0.3788 -1.0906 Q0.4269 -1.0906 0.4531 -1.0564 Q0.4794 -1.0222 0.4794 -0.9592 L0.4791 -0.9443 L0.3119 -0.9443 Q0.3224 -0.8498 0.4044 -0.8498 Q0.4344 -0.8498 0.4781 -0.8659 ZM0.3141 -0.9804 L0.431 -0.9804 Q0.431 -1.0544 0.3759 -1.0544 Q0.3204 -1.0544 0.3141 -0.9804 ZM0.5624 -0.8193 L0.5624 -1.0844 L0.6105 -1.0844 L0.6105 -1.0346 Q0.639 -1.0903 0.6935 -1.0903 Q0.7008 -1.0903 0.7089 -1.0891 L0.7089 -1.0442 Q0.6964 -1.0483 0.6869 -1.0483 Q0.6412 -1.0483 0.6105 -0.9941 L0.6105 -0.8193 Z" stroke="none"
      /><path d="M-1.3183 -0.7537 L-1.3043 -0.7954 Q-1.2665 -0.7756 -1.226 -0.7756 Q-1.1447 -0.7756 -1.1274 -0.8618 L-1.1191 -0.9036 Q-1.1568 -0.8479 -1.2176 -0.8479 Q-1.2652 -0.8479 -1.2864 -0.8826 Q-1.3075 -0.9172 -1.2958 -0.9761 Q-1.2836 -1.0366 -1.244 -1.0747 Q-1.2044 -1.1128 -1.1537 -1.1128 Q-1.1092 -1.1128 -1.0845 -1.0767 L-1.0784 -1.1069 L-1.0301 -1.1069 L-1.0687 -0.9141 Q-1.0811 -0.8518 -1.0936 -0.8219 Q-1.106 -0.792 -1.1276 -0.7729 Q-1.1658 -0.7395 -1.2322 -0.7395 Q-1.2786 -0.7395 -1.3183 -0.7537 ZM-1.1131 -0.9336 L-1.0911 -1.0437 Q-1.1162 -1.0767 -1.1536 -1.0767 Q-1.1868 -1.0767 -1.2109 -1.05 Q-1.235 -1.0234 -1.2443 -0.9771 Q-1.2617 -0.8899 -1.2004 -0.8899 Q-1.1587 -0.8899 -1.1131 -0.9336 ZM-0.883 -0.8328 Q-0.9389 -0.8328 -0.9629 -0.8854 Q-0.987 -0.938 -0.97 -1.0227 Q-0.9529 -1.1082 -0.9077 -1.1602 Q-0.8625 -1.2122 -0.8057 -1.2122 Q-0.7488 -1.2122 -0.7244 -1.1602 Q-0.7 -1.1082 -0.7169 -1.0234 Q-0.7343 -0.9365 -0.7795 -0.8846 Q-0.8247 -0.8328 -0.883 -0.8328 ZM-0.8753 -0.8689 Q-0.7989 -0.8689 -0.7678 -1.0242 Q-0.7375 -1.176 -0.8129 -1.176 Q-0.8881 -1.176 -0.9187 -1.0227 Q-0.9495 -0.8689 -0.8753 -0.8689 Z" fill="white" stroke="none"
    /></g
    ><g font-family="sans-serif" font-size="0.5px" font-style="italic" stroke-width="0.04" transform="matrix(50,0,0,50,133.4922,120.7227)"
    ><path d="M1.11 -1 L1.87 -1" fill="none"
      /><path d="M1.87 -1.075 L1.87 -0.925 L1.87 -1 Z" stroke="none"
    /></g
    ><g font-family="sans-serif" font-size="0.5px" font-style="italic" stroke-width="0.04" transform="matrix(50,0,0,50,133.4922,120.7227)"
    ><line fill="none" x1="1" x2="1.11" y1="-1" y2="-1"
    /></g
    ><g font-family="sans-serif" font-size="0.5px" font-style="italic" stroke-width="0.04" transform="matrix(50,0,0,50,133.4922,120.7227)"
    ><path d="M-1.87 -1 L-1.11 -1" fill="none"
      /><path d="M-1.11 -1.075 L-1.11 -0.925 L-1.11 -1 Z" stroke="none"
    /></g
    ><g font-family="sans-serif" font-size="0.5px" font-style="italic" stroke-width="0.04" transform="matrix(50,0,0,50,133.4922,120.7227)"
    ><line fill="none" x1="-1.11" x2="-1" y1="-1" y2="-1"
    /></g
  ></g
></svg
>
